brandFactory_export/1.Light/Carpeta_1Light.svg

<?xml version="1.0" encoding="UTF-8"?>
<svg width="24px" height="24px" viewBox="0 0 24 24" version="1.1" xmlns="http://www.w3.org/2000/svg" xmlns:xlink="http://www.w3.org/1999/xlink">
    <title>1.Light/Carpeta_1Light</title>
    <g id="Symbols" stroke="none" stroke-width="1" fill="none" fill-rule="evenodd">
        <g id="1.Light/Carpeta_1Light" fill="#5CB615" fill-rule="nonzero">
            <path d="M22.0235294,19.6436975 L1.50252101,19.6436975 C0.675630252,19.6369748 0.00672268908,18.9647059 0,18.1344538 L0,1.52605042 C0.00672268908,0.692436975 0.675630252,0.0201680672 1.50252101,0.0168067227 L10.2487395,0.0168067227 C10.6521008,0.0100840336 11.0386555,0.168067227 11.3277311,0.450420168 C11.6168067,0.732773109 11.7781513,1.12268908 11.7815126,1.52605042 L11.7815126,2.71932773 L22.0268908,2.71932773 C22.4302521,2.71260504 22.8168067,2.87058824 23.1058824,3.15294118 C23.394958,3.43529412 23.5563025,3.82521008 23.5596639,4.22857143 L23.5596639,18.1310924 C23.5563025,18.5344538 23.394958,18.9243697 23.1058824,19.2067227 C22.8168067,19.492437 22.4268908,19.6504202 22.0235294,19.6436975 L22.0235294,19.6436975 Z M1.50252101,1.00168067 C1.21680672,1.00168067 0.981512605,1.23697479 0.981512605,1.52605042 L0.981512605,18.1344538 C0.981512605,18.4235294 1.21344538,18.6588235 1.50252101,18.6588235 L22.0268908,18.6588235 C22.1647059,18.6588235 22.2957983,18.605042 22.3932773,18.5042017 C22.4907563,18.4067227 22.5445378,18.2722689 22.5445378,18.1344538 L22.5445378,4.23193277 C22.5445378,4.09411765 22.4907563,3.95966387 22.3932773,3.86218487 C22.2957983,3.76470588 22.1647059,3.70756303 22.0268908,3.70756303 L11.2268908,3.70756303 C10.9546218,3.70756303 10.7361345,3.48571429 10.7361345,3.21344538 L10.7361345,1.52605042 C10.7361345,1.24705882 10.5210084,1.01848739 10.2453782,1.00168067 L1.50252101,1.00168067 Z" id="Carpeta_1Light"></path>
        </g>
    </g>
</svg>

<svg width="24" height="24" viewBox="0 0 24 24" xmlns="http://www.w3.org/2000/svg"><path d="M22.024 19.644H1.503A1.519 1.519 0 010 18.134V1.526A1.514 1.514 0 011.503.016h8.746c.403-.006.79.152 1.079.434.289.283.45.673.454 1.076V2.72h10.245c.403-.006.79.152 1.079.434.289.282.45.672.454 1.076V18.13a1.522 1.522 0 01-1.536 1.513zM1.503 1.002a.524.524 0 00-.521.524v16.608c0 .29.231.525.52.525h20.525a.524.524 0 00.518-.524V4.231a.524.524 0 00-.518-.524h-10.8a.492.492 0 01-.49-.495V1.526a.523.523 0 00-.492-.524H1.503z" fill="#5CB615" fill-rule="nonzero"/></svg>
